!!!SOCIAL_FUNCTION:	bird dance songs
!!!PDT:	1956
!!!OTL: No_93_Chicken_Dance_Song_(b).krn
!!!LANG: Non-Tone
!!!LING_GROUP: Muskogean
!!!REG: Florida
**kern
*staff1
=1-
*clefF4
*k[b-]
*M2/4
16c\LK
8.G\J
8G\L
8A\J
=2
2G\
=3||
*M3/4
16F\LK
8.D\J
8F\L
8F\J
4F\
=4||
*M2/4
16A\LK
8.G\J
8G\L
8A\J
=5
4G\
4r
=6||
*M3/4
16F\LK
8.D\J
8F\L
8F\J
4F\
=7||
*M2/4
16c\LK
8.G\J
8G\L
8A\J
=8
2G\
=9||
*M3/4
16F\LK
8.D\J
8F\L
8F\J
4F\
==
*-
